X:543
T:BAdd543-  Robin Cushie/ Cushee (Kind Robin)
S:Blaikie MS via Glen's ESM, cushie = quo she
Q:1/4=120
L:1/4
M:C
K:G
GGA/G/E|GGA/B/e|GGA/G/E|G/G/ e/B/AG||\
d/e/B/B/ A/G/E|d/e/d/B/ A/G/e|d/e/B/B/ A/G/E|G/G/e/B/AG|]

